src/icons/svgs/24/arrow-trend-down.svg

<svg width="24" height="24" viewBox="0 0 24 24" fill="none" xmlns="http://www.w3.org/2000/svg">
<path d="M22 10.125V16.175C22 16.6305 21.6267 17 21.1667 17H15.0556C14.5972 17 14.2222 16.6322 14.2222 16.175C14.2222 15.7178 14.5955 15.35 15.0556 15.35H19.1563L13.1111 9.36531L9.2257 13.1534C9.09375 13.3459 8.87847 13.425 8.66667 13.425C8.45486 13.425 8.23958 13.3459 8.07639 13.1534L2.24306 7.37844C2.08139 7.24781 2 7.03469 2 6.825C2 6.35406 2.38924 6 2.83333 6C2.94279 5.99988 3.05119 6.02117 3.15231 6.06264C3.25343 6.10412 3.34527 6.16497 3.42257 6.24169L8.66667 11.4347L12.5208 7.61906C12.684 7.45406 12.8993 7.375 13.1111 7.375C13.3229 7.375 13.5375 7.45558 13.7003 7.61669L20.3333 14.1847V10.125C20.3333 9.67125 20.7083 9.3 21.1667 9.3C21.625 9.3 22 9.67125 22 10.125Z" fill="black"/>
</svg>

<svg width="24" height="24" viewBox="0 0 24 24" xmlns="http://www.w3.org/2000/svg">
    <path d="M22 10.125v6.05a.83.83 0 0 1-.833.825h-6.111a.83.83 0 0 1-.834-.825c0-.457.373-.825.834-.825h4.1l-6.045-5.985-3.885 3.788a.658.658 0 0 1-.56.272.756.756 0 0 1-.59-.272L2.243 7.378A.711.711 0 0 1 2 6.825a.83.83 0 0 1 1.152-.762.832.832 0 0 1 .27.179l5.245 5.193 3.854-3.816a.838.838 0 0 1 1.18-.002l6.632 6.568v-4.06c0-.454.375-.825.834-.825.458 0 .833.371.833.825Z"/>
</svg>
